X:42
T:T026- St. Patrick's Day in the Evening
S:R. Bride's 24 Country Dances for 1766
Q:1/4=60
M:6/8
L:1/8
K:Dm
(d2e) (f2g)|fed^c2A|(d2e) (f2g)|afd^c2A|\
(d2e) (f2g)|(A3 A)GF|G2AB2G|AFDD3::\
F2F F2/F/2cF|A2F cAF|G2AB2G|cAG FDE|\
F2F F/2F/2cF|A2F cAF|G2AB2G|AFDD3:|]

